X: 1
T: Boy In The Gap, The
M: 4/4
L: 1/8
R: reel
K: Dmix
|:D2FA dedc|A2GE A2GE|D2FA dedc|A2GE E2 GE|
D2FA dedc|A2GE cEGE|D2FA dedc|A2GE ED D2:||
|:(3fgf fe fedf|egfd edd^c|AB^cd eaag |eaag fdde|
(3fgf fe fedf|egfd edd^c|AB^cd efd^c|A2GE EDD2:||
|:df f2 df f2|ce e2 ge e2 |df f2 dfaf |g2 ag fdde |
f2 eg fdAF |G2 BG EFGE |D2 FA dedc |A2 GE ED D2:||
